actions/16/edit-select-all-layers.svg

<svg xmlns="http://www.w3.org/2000/svg" viewBox="0 0 16 16">
  <defs id="defs3051">
<style type="text/css" id="current-color-scheme">.ColorScheme-Text {color:#fcfcfc;}</style>
  </defs>
 <path style="fill:currentColor;fill-opacity:1;stroke:none" 
     d="M 2,4 C 2,6 2,5 2,5 H 3 C 3,5 3,5 3,4 3,3 4,3 4,3 H 5 V 2 H 4 C 4,2 2,2 2,4 Z m 9,-2 v 1 h 1 c 0,0 1,0 1,1 0,1 0,1 0,1 h 1 C 14,5 14,6 14,4 14,2 12,2 12,2 Z M 7,5 4,8 h 5 l 3,-3 z m 0,4 -3,3 h 5 l 3,-3 z m -5,2 c 0,0 0,-1 0,1 0,2 2,2 2,2 H 5 V 13 H 4 c 0,0 -1,0 -1,-1 0,-1 0,-1 0,-1 z m 11,0 c 0,0 0,0 0,1 0,1 -1,1 -1,1 h -1 v 1 h 1 c 0,0 2,0 2,-2 0,-2 0,-1 0,-1 z"
     class="ColorScheme-Text"
     />
</svg>

<svg xmlns="http://www.w3.org/2000/svg" viewBox="0 0 16 16">
  <defs id="defs3051">
    <style type="text/css" id="current-color-scheme">
      .ColorScheme-Text {
        color:#eff0f1;
      }
      </style>
  </defs>
 <path style="fill:currentColor;fill-opacity:1;stroke:none" 
     d="M 2 2 L 2 5 L 3 5 L 3 3 L 5 3 L 5 2 L 3 2 L 2 2 z M 11 2 L 11 3 L 13 3 L 13 4 L 13 5 L 14 5 L 14 3 L 14 2 L 11 2 z M 7 5 L 4 8 L 9 8 L 12 5 L 7 5 z M 7 9 L 4 12 L 9 12 L 12 9 L 7 9 z M 2 11 L 2 12 L 2 13 L 2 14 L 5 14 L 5 13 L 3 13 L 3 12 L 3 11 L 2 11 z M 13 11 L 13 12 L 13 13 L 12 13 L 11 13 L 11 14 L 12 14 L 13 14 L 14 14 L 14 12 L 14 11 L 13 11 z "
     class="ColorScheme-Text"
     />
</svg>
